X: 1
T: My Heart's In The Highlands
M: 3/4
L: 1/8
R: waltz
K: Dmaj
d3 cde|f2 d2 B2|A2 F2 A2|G2 F2 E2|
e3 def|g2 f2 ed|c2 B2 A2|B2 A2 FA|
d3 cde|f2 d2 B2|A2 F2 A2|G2 F2 E2|
e3 def|g2 f2 e2|A2 B2 c2|1 d4 A2:|2 d4 A2||
f4 ff|f4 e2|d2 f2 a2|b2 a2 f2|
e4 ee|e4 d2|e2 f2 a2|b2 a2 g2|
f4 ff|f4 e2|d2 f2 a2|b2 a2 f2|
e3 def|g2 e2 c2|A2 B2 c2|1 d4 A2:|2 d6||
